movie-off.svg

<svg fill="currentColor" viewBox="0 0 24 24"><path d="m22.11 21.46-1.27 1.27L18.11 20H4a2 2 0 0 1-2-2V6c0-.58.25-1.1.65-1.46L1.11 3l1.28-1.27zm-.23-2.78c.08-.21.12-.44.12-.68V4h-4l2 4h-3l-2-4h-2l2 4h-3l-2-4H8l.8 1.6z"/></svg>

<svg  viewBox="0 0 24 24" fill="currentColor"><path  d="M22.11 21.46L20.84 22.73L18.11 20H4C2.9 20 2 19.11 2 18V6C2 5.42 2.25 4.9 2.65 4.54L1.11 3L2.39 1.73L22.11 21.46M21.88 18.68C21.96 18.47 22 18.24 22 18V4H18L20 8H17L15 4H13L15 8H12L10 4H8L8.8 5.6L21.88 18.68Z"/></svg>
